X: 1
T: StarCraft : Terran Song[X-command]
Z: X-command
M: 4/4
L: 1/8
Q:1/4=68
K:G
z4 zC/2E/2 A/2E/2C/2z/2|[A/2D/2]z[AD][GB,]z3/2C/2E/2 A/2E/2C/2z/2|[^A3/2^D3/2][=A=D][G3/2C3/2] zC/2E/2 A/2E/2C/2z/2|D/2zDG3/2 zC/2E/2 A/2E/2C/2z/2|
[e3/2-^A3/2^D3/2][e-=A=D][e3/2G3/2C3/2] zD/2F/2 B/2F/2D/2z/2|[B/2E/2]z[BE][A^C]z3/2D/2F/2 B/2F/2D/2z/2|[c3/2=F3/2][BE][A3/2D3/2] zD/2^F/2 B/2F/2D/2z/2|E/2zEA3/2 zD/2F/2 B/2F/2D/2z/2|
[c3/2=F3/2][BE][A3/2D3/2] [B4-^G4-E4-]|[B4^G4E4] 